X: 518
T: Cezayir`in Harmanları Savrulur
C: Hüsnü Ortaç
O: Turkey
F: http://compmusic.upf.edu/node/140
N: gerdaniye--turku--nimsofyan--cezayirin_harmanlari--bursa
N: makam= gerdaniye
N: form= turku
N: usul= nimsofyan = 2/4
M: 2/4
L: 1/16
K: C _2/4B ^3/4f  
Q: 1/4=102
%%MIDI tuningsystem comma53
fg3 gggg  | g8  | fgag fgag  | fgag fgag  | 
w:  ARANAĞME  |   |   |   | 
f8  | f8  | e=fed efed  | e=fed efed  | d8  | d8  | \
w:   |   |   |   |   |   | 
gg3 g2g2  | 
w:  Ce za yi rin   | 
g8  | g8  | _b2a2 g2gf  | _3/4e3d c2dB  | c6z2  | \
w:   |   |  *  *  har man  |  la *  rı   |   | 
_3/4ee2f edce  | 
w:  sav *  ru lur   | 
d8  | d8  | d_7/8edc dedc  | d_7/8edc dedc  | \
w:  ey    |   |  SAZ  |   | 
d2dg d2dg  | 
w:   | 
g3g g2g2  | g8  | g8  | _b3a g2gf  | _3/4e3d (3cBcdB  | c8  | c8  | \
w:  Sav ru lur  da   |   |   |  *  *  sol  ya  |  nı *  na   |   |   | 
_3/4eeed c2Bd  | 
w:  dev *  ri *  lir   | 
c8  | c8  | Bcdc Bcdc  | Bcdc Bcdc  | B8  | B8  | \
w:  ey    |   |  SAZ  |   |   |   | 
A^3/4c_BA AG^FG  | 
w:   | 
A8  | A4 z4  | gg3 g2g2  | g8  | g8  | _b3a g2gf  | \
w:   |   |  Sa rı  buğ day   |   |   |  *  *  sa ma  | 
_3/4e3d c2dB  | c6z2  | 
w:  nın *  dan   |   | 
_3/4ee2f d2ce  | d8  | d8  | d8  | d_7/8edc dedc  | \
w:  ay *  rı lır    |   |   |   |  SAZ  | 
d_7/8edc dedc  | 
w:   | 
d2dd d2dd  | Bcd2 dd3  | d2_7/8ed edcB  | \
w:   |  So kak *  la rı   |  mer mer  *  taş  | 
c2z2 z4  | 
w:  lı    | 
d_7/8e2d ed3  | dd3 _7/8edcB  | c6z2  | \
w:  Gü zel *  le ri   |  hi lâl  kaş  |  lı   | 
_7/8ee3 dcdB  | c8  | c8  | 
w:  Ce za  |  yir    |   | 
c8  | _3/4B8  | _3/4B8  | AcBc _7/8BA(3GFG  | A8  | A8  | \
w:   |   |   |  SAZ  |   |   | 
fg3 gggg  | g8  | 
w:  ARANAĞME  |   | 
fgag fgag  | fgag fgag  | f8  | f8  | e=fed efed  | 
w:   |   |   |   |   | 
e=fed efed  | d8  | d8  | gg3 g2g2  | g8  | g8  | \
w:   |   |   |  Ce za yi rin   |   |   | 
_b2a2 g2gf  | 
w:  *  *  har man  | 
_3/4e3d c2dB  | c6z2  | _3/4ee2f edce  | d8  | d8  | \
w:  la *  rı   |   |  sav *  ru lur   |  ey    |   | 
d_7/8edc dedc  | 
w:  SAZ  | 
d_7/8edc dedc  | d2dg d2dg  | g3g g2g2  | g8  | g8  | \
w:   |   |  Sav ru lur  da   |   |   | 
_b3a g2gf  | 
w:  *  *  sol  ya  | 
_3/4e3d (3cBcdB  | c8  | c8  | _3/4eeed c2Bd  | c8  | c8  | \
w:  nı *  na   |   |   |  dev *  ri *  lir   |  ey    |   | 
Bcdc Bcdc  | 
w:  SAZ  | 
Bcdc Bcdc  | B8  | B8  | A^3/4c_BA AG^FG  | A8  | \
w:   |   |   |   |   | 
A4 z4  | 
w:   | 
gg3 g2g2  | g8  | g8  | _b3a g2gf  | _3/4e3d c2dB  | \
w:  Sa rı  buğ day   |   |   |  *  *  sa ma  |  nın *  dan   | 
c6z2  | _3/4ee2f d2ce  | 
w:   |  ay *  rı lır    | 
d8  | d8  | d8  | d_7/8edc dedc  | d_7/8edc dedc  | \
w:   |   |   |  SAZ  |   | 
d2dd d2dd  | 
w:   | 
Bcd2 dd3  | d2_7/8ed edcB  | c2z2 z4  | \
w:  So kak *  la rı   |  mer mer  *  taş  |  lı    | 
d_7/8e2d ed3  | dd3 _7/8edcB  | 
w:  Gü zel *  le ri   |  hi lâl  kaş  | 
c6z2  | _7/8ee3 dcdB  | c8  | c8  | c8  | _3/4B8  | _3/4B8  | \
w:  lı   |  Ce za  |  yir    |   |   |   |   | 
AcBc _7/8BA(3GFG  | 
w:  SAZ  | 
A8  | A8  | |


